X:30
T:Dram Shell, The
T:Am Botal dubh 's an t-slige chreachann
R:Reel
S:Simon Fraser Collection
N:No.33
O:Scottish
M:C
L:1/8
K:F# Minor
C|F3a fecA|ce^dc BAG^E|F3a fecf|ecBG AFF:|
g|afcf cfaf| gebe gbeg|afcf cfaf|ecBG cAAg|afcf cfaf|gebe gbeg|
agfg efcf|ecBG AFF||

